icons/1_Primary/Smarkets.svg

<svg xmlns="http://www.w3.org/2000/svg" width="1024" height="1024" fill="none">
   <g clip-path="url(#a)">
      <path fill="#96DFD3" d="M512 1024c282.77 0 512-229.23 512-512S794.77 0 512 0 0 229.23 0 512s229.23 512 512 512Z"/>
      <path fill="#fff" d="m651.84 216.47-4.74 11.86-32.77 81.07a5.761 5.761 0 0 1-1.29-1.08 158.714 158.714 0 0 0-40.32-20.91l28.89-71.15h50.24l-.01.21ZM444 731.78l-26.1 64.47h-50.24l4.74-11.86L403.67 707A158.238 158.238 0 0 0 444 731.78Zm-68.14-312.21c0-73.52 68.35-117.29 134.11-117.29 74.6 0 128.07 44.85 133.25 111.47.43 5 .43 14.66.43 14.66h-62.31a90.015 90.015 0 0 0-1.08-13.41s-.65-3.23-.65-3.45c-.22-.86-.43-1.94-.65-2.8a15.795 15.795 0 0 0-.86-3c-.22-1.08-.65-1.94-.86-2.8a56.13 56.13 0 0 0-19.62-26.09 17.907 17.907 0 0 0-2.59-1.72c-.86-.43-1.51-1.08-2.37-1.51a8.734 8.734 0 0 0-1.94-1.08c-.43-.22-1.08-.65-1.51-.86-1.29-.65-2.8-1.29-4.1-1.94a25.657 25.657 0 0 0-4.31-1.75 81.385 81.385 0 0 0-21.35-4.74 79.677 79.677 0 0 0-10.35-.43c-34.93 0-70.94 21.13-70.94 56.49 0 8.62 0 33.2 39.46 47.65l-22.42 55.67c-52.61-19.64-79.34-54.12-79.34-103.07Zm279.43 194.49C647.53 679 591.9 722.73 517.08 722.73c-37.52 0-72.88-12.29-99.61-34.71-25.66-21.35-42.26-51.32-44.63-80.64a102.16 102.16 0 0 1 0-15.09h61a69.86 69.86 0 0 0 4.1 21.13c.27.458.418.978.43 1.51a34.49 34.49 0 0 0 2.59 5.82c.256.485.473.99.65 1.51.251.523.538 1.027.86 1.51 1.08 1.72 2.16 3.67 3.45 5.39a16.59 16.59 0 0 0 1.72 2.37 76.037 76.037 0 0 0 15.09 14.88c.465.41.971.772 1.51 1.08.465.41.971.772 1.51 1.08a89.323 89.323 0 0 0 26.3 12.07 91.91 91.91 0 0 0 24.8 3.23c33 0 70.51-14.45 76.76-55.2 3-39.24-29.32-56.71-54.77-64.47l22.42-55.63c30.62 9.92 54.33 24.36 70.29 42.48 19.86 22.42 27.84 50.45 23.74 83.01Zm-94.65-169.69-5.17 12.51-41 101.34-28 69.43c-1.29-.65-2.37-1.51-3.45-2.16a3.123 3.123 0 0 0-.86-.43l-1.3-1.06c-25-17.68-21.35-50.24-20.27-56.49.04-.666.185-1.32.43-1.94l6.9-17 40.76-100.97 24.58-60.6 4.74 2.16c24.58 12.95 22.64 55.21 22.64 55.21Z"/>
   </g>
   <defs>
      <clipPath id="a">
         <path fill="#fff" d="M0 0h1024v1024H0z"/>
      </clipPath>
   </defs>
</svg>

<svg width="1024" height="1024" viewBox="0 0 1024 1024" fill="none" xmlns="http://www.w3.org/2000/svg">
<g clip-path="url(#clip0_2_3486)">
<path d="M512 1024C794.77 1024 1024 794.77 1024 512C1024 229.23 794.77 0 512 0C229.23 0 0 229.23 0 512C0 794.77 229.23 1024 512 1024Z" fill="#96DFD3"/>
<path d="M651.84 216.47L647.1 228.33L614.33 309.4C613.849 309.105 613.415 308.741 613.04 308.32C600.672 299.453 587.093 292.411 572.72 287.41L601.61 216.26H651.85L651.84 216.47ZM444 731.78L417.9 796.25H367.66L372.4 784.39L403.67 707C415.795 717.235 429.39 725.589 444 731.78ZM375.86 419.57C375.86 346.05 444.21 302.28 509.97 302.28C584.57 302.28 638.04 347.13 643.22 413.75C643.65 418.75 643.65 428.41 643.65 428.41H581.34C581.315 423.919 580.954 419.437 580.26 415C580.26 415 579.61 411.77 579.61 411.55C579.39 410.69 579.18 409.61 578.96 408.75C578.773 407.724 578.485 406.719 578.1 405.75C577.88 404.67 577.45 403.81 577.24 402.95C573.429 392.501 566.6 383.421 557.62 376.86C556.808 376.213 555.942 375.637 555.03 375.14C554.17 374.71 553.52 374.06 552.66 373.63C552.062 373.189 551.41 372.826 550.72 372.55C550.29 372.33 549.64 371.9 549.21 371.69C547.92 371.04 546.41 370.4 545.11 369.75C543.729 369.037 542.287 368.452 540.8 368C533.929 365.467 526.748 363.872 519.45 363.26C516.013 362.892 512.556 362.749 509.1 362.83C474.17 362.83 438.16 383.96 438.16 419.32C438.16 427.94 438.16 452.52 477.62 466.97L455.2 522.64C402.59 503 375.86 468.52 375.86 419.57ZM655.29 614.06C647.53 679 591.9 722.73 517.08 722.73C479.56 722.73 444.2 710.44 417.47 688.02C391.81 666.67 375.21 636.7 372.84 607.38C372.468 602.357 372.468 597.313 372.84 592.29H433.84C434.107 599.503 435.49 606.631 437.94 613.42C438.21 613.878 438.358 614.398 438.37 614.93C439.052 616.946 439.919 618.894 440.96 620.75C441.216 621.235 441.433 621.74 441.61 622.26C441.861 622.783 442.148 623.287 442.47 623.77C443.55 625.49 444.63 627.44 445.92 629.16C446.422 629.999 446.998 630.792 447.64 631.53C451.951 637.17 457.03 642.179 462.73 646.41C463.195 646.82 463.701 647.182 464.24 647.49C464.705 647.9 465.211 648.262 465.75 648.57C473.802 653.996 482.686 658.073 492.05 660.64C500.131 662.842 508.475 663.928 516.85 663.87C549.85 663.87 587.36 649.42 593.61 608.67C596.61 569.43 564.29 551.96 538.84 544.2L561.26 488.57C591.88 498.49 615.59 512.93 631.55 531.05C651.41 553.47 659.39 581.5 655.29 614.06ZM560.64 444.37L555.47 456.88L514.47 558.22L486.47 627.65C485.18 627 484.1 626.14 483.02 625.49C482.757 625.303 482.467 625.158 482.16 625.06L480.86 624C455.86 606.32 459.51 573.76 460.59 567.51C460.63 566.844 460.775 566.19 461.02 565.57L467.92 548.57L508.68 447.6L533.26 387L538 389.16C562.58 402.11 560.64 444.37 560.64 444.37Z" fill="white"/>
</g>
<defs>
<clipPath id="clip0_2_3486">
<rect width="1024" height="1024" fill="white"/>
</clipPath>
</defs>
</svg>
